X: 9253
T: Dan R's Favourite
R: jig
M: 6/8
K: Amajor
ecA A2 c|BGE E2 (a/f/)|ecA Ace|fba g2 (g/f/)|
ecA ABc|BGE E2 E|FGA BGE|A3 A2:|
cAc ece|fdf e2 (a/f/)|ecA ABc|BGE E2 (e/d/)|
cAc ece|fdf e2 (a/f/)|ecA EFG|A3 A2:|

